X:1
T:Title
%%score ( 1 2 ) { 3 | 4 }
L:1/8
Q:1/4=100
M:4/4
K:F
V:1 treble nm="Bright Piano"
V:2 treble 
V:3 bass nm="Bright Piano"
V:4 bass 
V:1
 [CA]6 [CF][CE] | D2 DD D2 D2 | [DB]6 [DG][DF] | E2 EE E2 E2 | [Fc]6 [EA][EG] | %5
 [DF]2 FF FF[FG][FA] | z2 G2 z4 | [CF]8 | [CA] [CA]2 [CA] [FA]2 [EA]2 | %9
 [DB] [DB]2 [DB] [GB]2 [FB]2 | [Ec] [Ec]2 [Dc] [Ec]2 [FB][GB] | [FA]4 [FA]4 | %12
 [CA] [CA]2 [CA] [FA]2 [EA]2 | [DB] [DB]2 [DB] [GB]2 [FB]2 | [Ec] [Ec]2 [Dc] [Ec]2 [FB][GB] | %15
 [FA]4 [FA]4 | [CA]6 [CF][CE] | D2 DD D2 D2 | [DB]6 [DG][DF] | E2 EE E2 E2 | [Fc]6 [EA][EG] | %21
 [DF]2 FF FF[FG][FA] | z2 G2 z4 |[M:8/4] [CF]8 z8 |] %24
V:2
 x8 | x8 | x8 | x8 | x8 | x8 | [GB]2 z F [CE]2 [B,C][CE] | x8 | x8 | x8 | x8 | x8 | x8 | x8 | x8 | %15
 x8 | x8 | x8 | x8 | x8 | x8 | x8 | [GB]2 z F [CE]2 [B,C][CE] |[M:8/4] x16 |] %24
V:3
 A,6 A,G, | F,8 | B,6 B,A, | G,8 | C6 CB, | A,6 B,[K:treble]C | D2 D2 C2 C[K:bass]B, | A,8 | %8
 F, F,2 A, C2 C2 | G, G,2 B, D2 D2 | G, G,2 G,[K:treble] C2 CC | C4 C4 | F, F,2 A, C2 C2 | %13
 G, G,2 B, D2 D2 | G, G,2 G,[K:treble] C2 CC | C4 C4 | A,6 A,G, | F,8 | B,6 B,A, | G,8 | C6 CB, | %21
 A,6 B,[K:treble]C | D2 D2 C2 CB, |[M:8/4] A,8 z8 |] %24
V:4
 F,2 E,2 D,2 A,,A,, | D,2 D,D, D,2 C,2 | B,,2 A,,2 G,,2 B,,B,, | C,2 C,C, C,2 B,,2 | %4
 A,,2 B,,2 C,2 C,C, | D,2 D,D, D,D,C,C, | B,,2 B,,2 C,2 C,C, | F,,8 | z2 z E, D,2 C,2 | %9
 B,, B,,2 A,, G,,2 G,,2 | C, C,2 C, C,2 D,E, | F,4 F,4 | z2 z E, D,2 C,2 | B,, B,,2 A,, G,,2 G,,2 | %14
 C, C,2 C, C,2 D,E, | F,4 F,4 | F,2 E,2 D,2 A,,A,, | D,2 D,D, D,2 C,2 | B,,2 A,,2 G,,2 B,,B,, | %19
 C,2 C,C, C,2 B,,2 | A,,2 B,,2 C,2 C,C, | D,2 D,D, D,D,C,C, | B,,2 B,,2 C,2 C,C, | %23
[M:8/4] F,,8 z8 |] %24

